X:62
T: Flatwater Fran
R: waltz
M: 3/4
L: 1/8
K: Gmaj
C: Phil Cunningham
|: DE |"G" G2G2DE | G2G2Bd  | "C"e2d2G2 | "G" B4DE   |
      "G" G2G2DE | "Am" A2A2GA |"Em"B2AG ED | "C"E4DE |
      "G" G2G2DE |     G2G2Bd |"C"e2d2g2 | "G"B4dB|
      "Am"A2AG AB |"Em"AGE2GE|"C"DEG2"D7"G2 | "G" G4 :|
|: Bd | "C"e2d2G2|"G"B4Bd|"C"e2d2G2|"G"B4Bd|
"C"e2d2g2 |"Em"B2dB AG| "Am" A2AG AB|"D"A4Bd|
"C"e2d2g2 |"G"B2dB AG | "D7" A2"Bm"d3c|"Em"B3B AG|
"Am"EA AG AB|"Em"AG E2GE| "C"DEG2"D7"G2|"G"G4 :|

